X: 13181
T: There's my Thumb I'll nere beguile you
%R: air, march, reel
B: James Oswald "The Caledonian Pocket Companion" v.1 b.3 p.18 #1
S: https://ia800501.us.archive.org/18/items/caledonianpocket01rugg/caledonianpocket01rugg_bw.pdf
Z: 2020 John Chambers <jc:trillian.mit.edu>
M: C
L: 1/8
K: G
%%slurgraces 1
%%graceslurs 1
|: "_Slow"\
G3B d3(c/B/) | ABcd e2(e/f/g) | G3B d2(TcB) | e2(e/f/g) d2(TcB) |\
(cd)(ed) (ef)(gB) | (AB)(cd) e2(e/f/g) | G3E D2(DE) |
G3A TB2d2 ::\
(GA)(Bc) (de)(dB) | (AB)(cd) (Ted)(eg) | (GA)(Bc) (de)(dB) | gage (de)(dB) |\
(cd)(ed) (e/g/)(f/a/) gB | (AB)(cd) e2(e/f/g) |
TG3E D2(DE) | G3A TB2d2 ::\
GB2 d2 g2B | (AB)(cd) e2(e/f/g) | GB2 d2 B2b- | bg2 d2 B2G |\
(c/e/)g (c/e/)g (B/d/e/f/) (g/d/c/B/) |
A/c/B/d/ c/e/d/=f/ e2 e/^f/g | TG3E D2(DE) | G3A TB2{Bc}d2 ::\
GABc d(g/f/) (e/d/c/B/) | A(c/B/) cd e(e/f/) g/(e/f/g/) |
GABc (d<B)(d<B) | (b<g)(b<g) (d<B)(d<B) |\
cded (e/g/f/a/) (g/d/c/B/) | A(c/B/) cd e2 (e/f/)g | TG3E D2(DE) | G3A TB2{Bc}d2 :|


